X:198
T:Vals efter Bertil Ekerot
T:(SvL Halland 198)
R:Vals
O:Drängsered och Gunnarp, Halland
S:Bertil Ekerot
S:Johannes Erlanson
B:Svenska Låtar Halland
M:3/4
L:1/8
K:G
uD2|vG4 (DG)|B4 (GB)|d4 (Bd)|g4 ud2|vg3 f e(d|e)(d c)B c(B|e)(d c)B cA|vG4:|
|:(ud2|g)(d B)G B(d|g)(d B)G B(ud|e)(c A)F A(c|e)(c A)F A(ud|
g)(d B)G B(d|g)(d B)G B(d|e)(c A)F DF|G4:|

